Origami/24x24/apps/day-of-the-tentacle-remastered.svg

<svg width="24" height="24" version="1" xmlns="http://www.w3.org/2000/svg">
 <path d="m22 21.5s0-19-10-19-10 19-10 19c0 0.554 0.446 1 1 1h18c0.554 0 1-0.446 1-1z" style="opacity:.2"/>
 <path d="m22 21s0-19-10-19-10 19-10 19c0 0.554 0.446 1 1 1h18c0.554 0 1-0.446 1-1z" style="fill:#bb4499"/>
 <path d="M 12,2 C 2,2 2,21 2,21 c 0,0.03279 0.00671,0.06374 0.00977,0.0957 C 2.0457125,19.025627 2.6190226,2.5 12,2.5 c 9.380977,0 9.954287,16.525627 9.990234,18.595703 C 21.993288,21.063743 22,21.032787 22,21 22,21 22,2 12,2 Z" style="fill:#ffffff;opacity:.2"/>
 <path d="m18 12.5c0 3.313709-2.686291 6-6 6-3.3137085 0-6-2.686291-6-6 0-2.344961 1.345228-4.3757275 3.306068-5.362684 0.81006-0.40773 1.691717 0.6009705 2.660465 0.6009705 0.999551 0 1.975481-0.993868 2.804352-0.5615375 1.918997 1.00093 3.229115 3.009094 3.229115 5.323251z" style="opacity:.2"/>
 <path d="m 18,12 c 0,3.313709 -2.686291,6 -6,6 C 8.6862915,18 6,15.313709 6,12 6,9.7774605 7.2084355,7.8371665 9.0041005,6.800323 9.8856935,6.2912785 10.841897,7.67336 11.933066,7.67336 c 1.131038,0 2.255917,-1.3604065 3.158899,-0.816369 C 16.834531,7.9068705 18,9.8173305 18,12 Z" style="fill:#69e27d"/>
 <circle cx="12" cy="12" r="4" style="fill:#00a200"/>
 <path d="m4 8s2.2307325-1.5084615 3.5-1.5c1.64144 0.01094 2.858524 2 4.5 2 1.641477 0 2.85856-1.9890575 4.5-2 1.269268-0.00846 3.5 1.5 3.5 1.5" style="fill:none;opacity:.2;stroke-linecap:round;stroke-linejoin:round;stroke-width:2;stroke:#000000"/>
 <path d="m4 7.5s2.2307325-1.5084615 3.5-1.5c1.64144 0.01094 2.858524 2 4.5 2 1.641477 0 2.85856-1.9890575 4.5-2 1.269268-0.00846 3.5 1.5 3.5 1.5" style="fill:none;stroke-linecap:round;stroke-linejoin:round;stroke-width:2;stroke:#3f3f3f"/>
</svg>

<svg xmlns="http://www.w3.org/2000/svg" width="24" height="24" version="1">
 <path style="opacity:0.2" d="m 22,21.5 c 0,0 0,-19 -10,-19 -10,0 -10,19 -10,19 0,0.554 0.446,1 1,1 l 18,0 c 0.554,0 1,-0.446 1,-1 z"/>
 <path style="fill:#bb4499" d="M 22,21 C 22,21 22,2 12,2 2,2 2,21 2,21 c 0,0.554 0.446,1 1,1 l 18,0 c 0.554,0 1,-0.446 1,-1 z"/>
 <path style="opacity:0.2;fill:#ffffff" d="M 12,2 C 2,2 2,21 2,21 c 0,0.03279 0.00671,0.06374 0.00977,0.0957 C 2.0457125,19.025627 2.6190226,2.5 12,2.5 c 9.380977,0 9.954287,16.525627 9.990234,18.595703 C 21.993288,21.063743 22,21.032787 22,21 22,21 22,2 12,2 Z"/>
 <path style="opacity:0.2" d="m 18,12.5 c 0,3.313709 -2.686291,6 -6,6 -3.3137085,0 -6,-2.686291 -6,-6 0,-2.344961 1.345228,-4.3757275 3.306068,-5.362684 0.81006,-0.40773 1.691717,0.6009705 2.660465,0.6009705 0.999551,0 1.975481,-0.993868 2.804352,-0.5615375 C 16.689882,8.177679 18,10.185843 18,12.5 Z"/>
 <path style="fill:#69e27d" d="m 18,12 c 0,3.313709 -2.686291,6 -6,6 C 8.6862915,18 6,15.313709 6,12 6,9.7774605 7.2084355,7.8371665 9.0041005,6.800323 9.8856935,6.2912785 10.841897,7.67336 11.933066,7.67336 c 1.131038,0 2.255917,-1.3604065 3.158899,-0.816369 C 16.834531,7.9068705 18,9.8173305 18,12 Z"/>
 <circle style="fill:#00a200" cx="12" cy="12" r="4"/>
 <path style="opacity:0.2;fill:none;stroke:#000000;stroke-width:2;stroke-linecap:round;stroke-linejoin:round" d="m 4,8 c 0,0 2.2307325,-1.5084615 3.5,-1.5 1.64144,0.01094 2.858524,2 4.5,2 1.641477,0 2.85856,-1.9890575 4.5,-2 C 17.769268,6.49154 20,8 20,8 l 0,0"/>
 <path style="fill:none;stroke:#3f3f3f;stroke-width:2;stroke-linecap:round;stroke-linejoin:round" d="M 4,7.5 C 4,7.5 6.2307325,5.9915385 7.5,6 9.14144,6.01094 10.358524,8 12,8 13.641477,8 14.85856,6.0109425 16.5,6 17.769268,5.99154 20,7.5 20,7.5 l 0,0"/>
</svg>
